icons/square-warning.svg

<svg xmlns="http://www.w3.org/2000/svg" width="24" height="24" viewBox="0 0 24 24">
  <path d="M20,2 C21.1045695,2 22,2.8954305 22,4 L22,20 C22,21.1045695 21.1045695,22 20,22 L4,22 C2.8954305,22 2,21.1045695 2,20 L2,4 C2,2.8954305 2.8954305,2 4,2 L20,2 Z M12,16 C11.1715729,16 10.5,16.6715729 10.5,17.5 C10.5,18.3284271 11.1715729,19 12,19 C12.8284271,19 13.5,18.3284271 13.5,17.5 C13.5,16.6715729 12.8284271,16 12,16 Z M12,5 C11.4477153,5 11,5.44771525 11,6 L11,6 L11,13 C11,13.5522847 11.4477153,14 12,14 C12.5522847,14 13,13.5522847 13,13 L13,13 L13,6 C13,5.44771525 12.5522847,5 12,5 Z"/>
</svg>

<svg xmlns="http://www.w3.org/2000/svg" viewBox="0 0 24 24">
  <path d="M20 2a2 2 0 0 1 2 2v16a2 2 0 0 1-2 2H4a2 2 0 0 1-2-2V4c0-1.1.9-2 2-2h16zm-8 14a1.5 1.5 0 1 0 0 3 1.5 1.5 0 0 0 0-3zm0-11a1 1 0 0 0-1 1v7a1 1 0 0 0 2 0V6a1 1 0 0 0-1-1z"/>
</svg>
